X:31
T:Graies Inn Mask
T:Gray's Inn Mask
T:Mad Tom
M:2/2
L:1/4
P:(AABBCC)3
K:Fmaj clef=treble
P:A
[||: "Gm"gg/2a/2bg | "Dm"d'dd2 | dd/2e/2fd | "Gm"gg2g | \
"Bb"B>B"C"c>c | d/2e/2f/2e/2 d>d | e/2f/2g/2a/2ba | g4 :|
P:B
"Gm"g/2a/2b/2c'/2d'd' | "F"c'bd'2 | "Gm"ggfe | "Dm"d4 || \
"Dm"fda2 | "Gm"bgb2 | "F"a>bc'2 | "Bb"b4 || \
"Bb"b2 ag | "F"f4 | "Dm"d'2c'b | a4 || \
"G"=bbbg | =bc'd'd' | "C"e'e' "D"d'c' | "G"=b4 ||
M:6/8
L:1/8
P:C
[||: "Gm"g>ab b>c'd'|"Dm"d3d2d| d>ef f>ga | "C"c3c2c | \
"Bb"B3g2a | "Gm"b>c'd'/2c'/2 ba2 |1 "Gm"g3 g2 g :|2 "Gm"g6 |]

